pieces/chess7/kw.svg

<svg width="68" height="68" viewBox="0 0 68 68" fill="none" xmlns="http://www.w3.org/2000/svg">
<path d="M50.346 52.528L51.626 64.688H16.042L17.45 52.528C16.426 52.3147 15.402 51.9947 14.378 51.568C13.354 51.0987 12.2233 50.3947 10.986 49.456C9.27933 48.048 7.978 46.6613 7.082 45.296C6.186 43.9307 5.482 42.288 4.97 40.368C4.15933 37.2107 3.754 34.544 3.754 32.368C3.79666 31.472 3.90333 30.2987 4.074 28.848C4.28733 27.3973 4.75666 25.7547 5.482 23.92C6.07933 22 7.23133 20.2507 8.938 18.672C10.6447 17.0933 12.0527 16.0693 13.162 15.6C14.1433 15.088 16.1273 14.6827 19.114 14.384C22.1007 14.0853 24.682 14.2347 26.858 14.832C27.882 15.2587 28.5433 15.664 28.842 16.048C29.354 15.152 29.9513 14.2133 30.634 13.232C31.3593 12.208 32.042 11.248 32.682 10.352V9.264H29.738V6.192H32.682V3.312H35.626V6.192H38.378V9.264H35.626V10.352C36.2233 11.248 36.842 12.1867 37.482 13.168C38.1647 14.1067 38.762 15.024 39.274 15.92C39.5727 15.7067 39.8713 15.5147 40.17 15.344C40.5113 15.1733 40.8313 15.0027 41.13 14.832C43.3487 14.2347 45.93 14.0853 48.874 14.384C51.8607 14.6827 53.9087 15.088 55.018 15.6C55.9993 16.0693 57.3433 17.0933 59.05 18.672C60.7567 20.2507 61.9727 22 62.698 23.92C63.2953 25.7547 63.7007 27.3973 63.914 28.848C64.1273 30.2987 64.234 31.472 64.234 32.368C64.3193 34.5013 63.914 37.168 63.018 40.368C62.506 42.288 61.802 43.9307 60.906 45.296C60.0527 46.6613 58.7513 48.048 57.002 49.456C55.722 50.48 54.5487 51.2267 53.482 51.696C52.4153 52.1227 51.37 52.4 50.346 52.528Z" fill="black"/>
<path fill-rule="evenodd" clip-rule="evenodd" d="M22.03 59.555C23.066 58.43 23.982 57.459 24.066 57.397C24.15 57.336 25.173 57.241 26.339 57.186L28.459 57.086L30.459 59.045C31.559 60.122 32.661 61.138 32.909 61.302C33.329 61.581 32.935 61.6 26.752 61.6H20.146L22.03 59.555ZM20.064 56.588C20.129 56.195 20.183 55.685 20.184 55.455L20.186 55.036L20.826 55.524C21.532 56.063 21.5 56.196 20.491 56.914L19.946 57.303L20.064 56.588ZM32.591 57.005L31.095 55.502L32.686 53.92L34.277 52.34L35.764 53.941L37.251 55.543L35.761 57.026C34.941 57.842 34.228 58.509 34.178 58.509C34.128 58.509 33.414 57.833 32.591 57.005V57.005ZM35.389 61.208C35.677 60.992 36.735 60.008 37.74 59.021L39.567 57.226L41.649 57.348L43.732 57.471L45.52 59.218C46.503 60.178 47.386 61.107 47.48 61.282C47.644 61.582 47.294 61.6 41.259 61.6H34.864L35.389 61.208ZM46.776 56.46L46.025 55.691L46.727 55.19L47.43 54.688L47.557 55.88C47.627 56.535 47.649 57.107 47.606 57.15C47.563 57.193 47.189 56.883 46.776 56.46V56.46ZM41.138 54.153L39.817 54.031L37.458 51.697L35.1 49.364L37.234 49.487C40.159 49.654 41.544 49.983 43.41 50.954C44.287 51.41 45.12 51.857 45.26 51.947C45.464 52.077 45.333 52.337 44.624 53.209C43.631 54.431 43.765 54.394 41.138 54.153V54.153ZM22.755 53.351L21.791 52.375L23.125 51.824C24.84 51.116 25.8 50.797 27.625 50.331C28.884 50.01 32.232 49.423 32.825 49.419C32.927 49.419 31.985 50.451 30.735 51.713L28.459 54.008L26.641 54.16C23.667 54.408 23.833 54.442 22.755 53.351V53.351ZM18.186 49.396C17.236 49.197 16.05 48.846 15.55 48.616C13.609 47.723 10.547 44.926 9.386 42.986C8.246 41.081 7.206 37.106 6.979 33.782C6.79 31.007 7.684 26.04 8.755 23.905C9.634 22.155 11.99 19.735 13.939 18.58C15.959 17.383 22.679 16.945 25.902 17.8C27.032 18.1 28.346 19.557 29.082 21.324C29.746 22.918 30.905 27.362 31.898 32.12L32.55 35.245V46.311L31.868 46.415C27.766 47.045 23.12 48.305 21.056 49.348C20.584 49.587 20.134 49.776 20.056 49.769C19.977 49.762 19.136 49.594 18.186 49.396V49.396ZM46.004 48.754C43.089 47.108 41.564 46.694 37.422 46.416L35.477 46.286L35.579 40.624L35.68 34.964L36.392 31.604C38.35 22.367 39.485 19.312 41.355 18.247C42.258 17.732 42.607 17.648 44.764 17.423C46.636 17.228 49.924 17.437 52.09 17.888C53.706 18.225 54.837 18.974 57.007 21.143C58.851 22.987 59.496 24.108 60.26 26.802C61.482 31.112 61.301 35.745 59.727 40.454C59.091 42.357 57.944 44.142 56.335 45.734C54.167 47.878 52.579 48.852 50.505 49.311C48.071 49.849 47.909 49.829 46.005 48.754H46.004ZM33.929 27.418C33.587 25.828 32.647 22.805 31.979 21.146C31.449 19.828 31.271 19.151 31.331 18.686C31.421 17.992 32.55 15.857 33.573 14.449L34.211 13.571L34.801 14.541L35.949 16.418C36.995 18.124 37.025 18.456 36.3 20.275C35.711 21.753 34.956 24.312 34.325 26.964L34.065 28.054L33.929 27.418Z" fill="white"/>
</svg>

<svg height="68" width="68" xmlns="http://www.w3.org/2000/svg"><path d="m39.594 57.136q-3.52 3.52-3.84 3.712-1.6 1.472-3.392 0-.384-.192-3.84-3.84l-4.48.256-3.968 4.352h27.84l-4.032-4.16zm6.016-5.056q-.96-.576-1.856-1.024-.896-.448-1.536-.832-1.28-.576-4.096-.768-2.752-.192-3.776-.256-.96.064-3.392.384-2.368.32-5.376 1.216-3.136 1.152-3.84 1.536l2.048 2.048 4.736-.32 3.84-4.032q1.728-1.6 3.392 0l4.032 4.032 3.904.32zm-25.408 2.88-.32 2.496 1.728-1.408zm0-5.184q.704-.384 1.728-.768 1.024-.448 2.752-.96 2.304-.768 4.352-1.152 2.112-.384 3.648-.512l-.128-11.392q-1.152-5.952-2.56-11.2-1.408-5.248-3.904-6.016-2.88-.768-6.72-.448-3.776.32-4.992.896-1.344.704-3.392 2.624-1.984 1.856-2.752 4.16-.832 2.432-1.088 4.352-.192 1.92-.32 3.136 0 2.496 1.088 7.104.64 2.304 1.728 3.968 1.152 1.664 3.328 3.392 1.92 1.664 3.712 2.176 1.792.448 3.52.64zm13.888-21.44q.576-2.688 1.216-5.12.704-2.496 1.664-4.416 0-.64-.576-1.792-.512-.96-1.152-1.792-.576-.832-1.024-1.792-1.6 2.176-2.304 3.584-.576 1.024-.704 1.472-.064.448-.064.832 1.728 3.52 2.944 9.024zm16.256 24.192 1.28 12.16h-35.584l1.408-12.16q-1.536-.32-3.072-.96-1.536-.704-3.392-2.112-2.56-2.112-3.904-4.16-1.344-2.048-2.112-4.928-1.216-4.736-1.216-8 .064-1.344.32-3.52.32-2.176 1.408-4.928.896-2.88 3.456-5.248 2.56-2.368 4.224-3.072 1.472-.768 5.952-1.216 4.48-.448 7.744.448 1.536.64 1.984 1.216.768-1.344 1.792-2.816 1.088-1.536 2.048-2.88v-1.088h-2.944v-3.072h2.944v-2.88h2.944v2.88h2.752v3.072h-2.752v1.088q.896 1.344 1.856 2.816 1.024 1.408 1.792 2.752.448-.32.896-.576.512-.256.96-.512 3.328-.896 7.744-.448 4.48.448 6.144 1.216 1.472.704 4.032 3.072 2.56 2.368 3.648 5.248.896 2.752 1.216 4.928.32 2.176.32 3.52.128 3.2-1.216 8-.768 2.88-2.112 4.928-1.28 2.048-3.904 4.16-1.92 1.536-3.52 2.24-1.6.64-3.136.832zm-16.128-.32-3.2 3.264 3.2 3.2 3.072-3.2zm13.248 2.304-1.536 1.216 1.856 1.728zm-12.032-8.128q1.6 0 4.16.256t3.84.832l2.048 1.024q1.152.576 2.304 1.28 1.728-.128 3.456-.576 1.792-.512 3.904-2.24 3.904-3.264 4.928-7.36 1.216-4.544 1.088-7.104 0-1.216-.256-3.136-.256-1.92-1.152-4.352-.832-2.304-2.88-4.16-2.048-1.92-3.264-2.624-1.344-.576-4.992-.896-3.648-.32-6.528.448-2.56.768-3.968 6.016-1.344 5.248-2.496 11.2z"/><path d="m22.03 59.555c1.036-1.125 1.952-2.096 2.036-2.158.084-.061 1.107-.156 2.273-.211l2.12-.1 2 1.959c1.1 1.077 2.202 2.093 2.45 2.257.42.279.026.298-6.157.298h-6.606zm-1.966-2.967c.065-.393.119-.903.12-1.133l.002-.419.64.488c.706.539.674.672-.335 1.39l-.545.389zm12.527.417-1.496-1.503 1.591-1.582 1.591-1.58 1.487 1.601 1.487 1.602-1.49 1.483c-.82.816-1.533 1.483-1.583 1.483s-.764-.676-1.587-1.504zm2.798 4.203c.288-.216 1.346-1.2 2.351-2.187l1.827-1.795 2.082.122 2.083.123 1.788 1.747c.983.96 1.866 1.889 1.96 2.064.164.3-.186.318-6.221.318h-6.395zm11.387-4.748-.751-.769.702-.501.703-.502.127 1.192c.07.655.092 1.227.049 1.27s-.417-.267-.83-.69zm-5.638-2.307-1.321-.122-2.359-2.334-2.358-2.333 2.134.123c2.925.167 4.31.496 6.176 1.467.877.456 1.71.903 1.85.993.204.13.073.39-.636 1.262-.993 1.222-.859 1.185-3.486.944zm-18.383-.802-.964-.976 1.334-.551c1.715-.708 2.675-1.027 4.5-1.493 1.259-.321 4.607-.908 5.2-.912.102 0-.84 1.032-2.09 2.294l-2.276 2.295-1.818.152c-2.974.248-2.808.282-3.886-.809zm-4.569-3.955c-.95-.199-2.136-.55-2.636-.78-1.941-.893-5.003-3.69-6.164-5.63-1.14-1.905-2.18-5.88-2.407-9.204-.189-2.775.705-7.742 1.776-9.877.879-1.75 3.235-4.17 5.184-5.325 2.02-1.197 8.74-1.635 11.963-.78 1.13.3 2.444 1.757 3.18 3.524.664 1.594 1.823 6.038 2.816 10.796l.652 3.125v11.066l-.682.104c-4.102.63-8.748 1.89-10.812 2.933-.472.239-.922.428-1 .421-.079-.007-.92-.175-1.87-.373zm27.818-.642c-2.915-1.646-4.44-2.06-8.582-2.338l-1.945-.13.102-5.662.101-5.66.712-3.36c1.958-9.237 3.093-12.292 4.963-13.357.903-.515 1.252-.599 3.409-.824 1.872-.195 5.16.014 7.326.465 1.616.337 2.747 1.086 4.917 3.255 1.844 1.844 2.489 2.965 3.253 5.659 1.222 4.31 1.041 8.943-.533 13.652-.636 1.903-1.783 3.688-3.392 5.28-2.168 2.144-3.756 3.118-5.83 3.577-2.434.538-2.596.518-4.5-.557zm-12.075-21.336c-.342-1.59-1.282-4.613-1.95-6.272-.53-1.318-.708-1.995-.648-2.46.09-.694 1.219-2.829 2.242-4.237l.638-.878.59.97 1.148 1.877c1.046 1.706 1.076 2.038.351 3.857-.589 1.478-1.344 4.037-1.975 6.689l-.26 1.09z" fill="#fff" fill-rule="evenodd"/></svg>
